X:231
T: EIN KIRCHLEIN STEHT IM BLAUEN
N: B0279
O: Europa, Mitteleuropa, Deutschland
R: Stimmungs - Lied, Andacht
M: 4/4
L: 1/8
K: Ab
E2 | c3cc2B2 | B3AA2
E2 | d2d2dcec | B4z2
E2 | e3fe2d2 | c4ed
cB | A3AcBAG | A4
B4 | c2c2edBc | A4z2

@@@ Tune index: 2034
